packages/web-icons/svgs/crown.svg

<svg viewBox="0 0 48 49" xmlns="http://www.w3.org/2000/svg" class="ridi_icon"><path d="M45.3 41.2H2.7c-1.2 0-2.1.9-2.1 2.1V46c0 1.2.9 2.1 2.1 2.1h42.5c1.2 0 2.1-.9 2.1-2.1v-2.7c.1-1.2-.9-2.1-2-2.1zM6.5 17.4c-.4-.3-.9-.6-1.5-.6-1.2 0-2.2 1-2.2 2.2h-.1v17.4h.1c.1 1.1 1.1 2 2.2 2h37.7v-.1c1.2 0 2.1-.9 2.2-2V19c0-1.2-1-2.2-2.2-2.2-.5 0-1 .2-1.4.5l-.1.1-.2.2-4.7 4.7-10.6-10.9c-.4-.4-1-.7-1.6-.7-.6 0-1.2.3-1.6.7L11.4 22.3l-4.7-4.7-.2-.2zM5 13.8c2.3 0 4.2-1.9 4.2-4.2 0-2.3-1.9-4.1-4.2-4.1C2.7 5.5.8 7.4.8 9.7c0 2.2 1.9 4.1 4.2 4.1zm37.8 0c2.3 0 4.2-1.8 4.2-4.1s-1.9-4.2-4.2-4.2c-2.3 0-4.2 1.9-4.2 4.2 0 2.2 1.9 4.1 4.2 4.1zM24.2 8.3c2.3 0 4.2-1.9 4.2-4.2 0-2.3-1.9-4.1-4.2-4.1C21.9 0 20 1.9 20 4.2c.1 2.2 1.9 4.1 4.2 4.1z"/></svg>

<?xml version="1.0" encoding="UTF-8"?>
<svg width="48px" height="49px" viewBox="0 0 48 49" version="1.1" xmlns="http://www.w3.org/2000/svg">
  <!-- Generator: Sketch 41.2 (35397) - http://www.bohemiancoding.com/sketch -->
  <title>crown</title>
  <desc>Created with Sketch.</desc>
  <defs></defs>
  <g id="Page-1" stroke="none" stroke-width="1" fill="none" fill-rule="evenodd">
    <g id="crown" fill="#000000">
      <g id="레이어_1">
        <path d="M45.3,41.2 L2.7,41.2 C1.5,41.2 0.6,42.1 0.6,43.3 L0.6,46 C0.6,47.2 1.5,48.1 2.7,48.1 L45.2,48.1 C46.4,48.1 47.3,47.2 47.3,46 L47.3,43.3 C47.4,42.1 46.4,41.2 45.3,41.2 Z M6.5,17.4 L6.5,17.4 L6.5,17.4 L6.5,17.4 C6.1,17.1 5.6,16.8 5,16.8 C3.8,16.8 2.8,17.8 2.8,19 L2.7,19 L2.7,36.4 L2.8,36.4 C2.9,37.5 3.9,38.4 5,38.4 L5,38.4 L5,38.4 L42.7,38.4 L42.7,38.3 L42.7,38.3 C43.9,38.3 44.8,37.4 44.9,36.3 L44.9,36.3 L44.9,36 L44.9,36 L44.9,19.5 L44.9,19 C44.9,17.8 43.9,16.8 42.7,16.8 C42.2,16.8 41.7,17 41.3,17.3 L41.3,17.3 L41.2,17.4 L41,17.6 L36.3,22.3 L25.7,11.4 L25.7,11.4 C25.3,11 24.7,10.7 24.1,10.7 C23.5,10.7 22.9,11 22.5,11.4 L22.5,11.4 L11.4,22.3 L6.7,17.6 C6.7,17.6 6.6,17.5 6.5,17.4 Z M5,13.8 C7.3,13.8 9.2,11.9 9.2,9.6 C9.2,7.3 7.3,5.5 5,5.5 C2.7,5.5 0.8,7.4 0.8,9.7 C0.8,11.9 2.7,13.8 5,13.8 Z M42.8,13.8 C45.1,13.8 47,12 47,9.7 C47,7.4 45.1,5.5 42.8,5.5 C40.5,5.5 38.6,7.4 38.6,9.7 C38.6,11.9 40.5,13.8 42.8,13.8 Z M24.2,8.3 C26.5,8.3 28.4,6.4 28.4,4.1 C28.4,1.8 26.5,0 24.2,0 C21.9,0 20,1.9 20,4.2 C20.1,6.4 21.9,8.3 24.2,8.3 Z" id="Shape"></path>
      </g>
    </g>
  </g>
</svg>
